X:1
T:Spanish is the Loving Tongue
M:6/8
L:1/8
K:C
 E2 E G2 G| A A2 c2 z| E2 EG E2| D2 C D2 z| E2 E G2 G| A2 A c2 z| E E2 G2 E|\
 F/2- D3/2 C C2 z| c2 cc G2| A2 AA G2| E2 E G2 E| E2 C E/2 D3/2- D|\
 E2 E G2 G| A2 A c2 z| E2 E G2 E| D2 C C3|

